img/logo1.svg

<?xml version="1.0" encoding="UTF-8" standalone="no"?>
<!-- Created with Inkscape (http://www.inkscape.org/) -->
<svg
   xmlns:svg="http://www.w3.org/2000/svg"
   xmlns="http://www.w3.org/2000/svg"
   version="1.0"
   width="694.34644"
   height="341.18503"
   id="svg2041">
  <defs
     id="defs2043" />
  <g
     transform="translate(-8.479224,-404.6258)"
     id="layer1">
    <g
       transform="translate(7.081015,7.088444)"
       id="g2058">
      <path
         d="M 218.56621,618.42453 L 261.7342,618.42453 L 261.7342,632.52931 L 241.19881,632.52931 L 241.19881,731.63395 L 218.56621,731.63395 L 218.56621,618.42453"
         style="fill:#0079c2;fill-rule:nonzero;stroke:none"
         id="path26" />
      <path
         d="M 287.32698,689.13401 L 291.20578,632.52931 L 292.50493,632.52931 L 296.38373,689.13401 L 287.32698,689.13401 z M 262.2632,731.63395 L 284.4225,731.63395 L 286.51971,701.56849 L 297.19107,701.56849 L 299.29749,731.63395 L 321.44757,731.63395 L 309.64411,618.42453 L 274.06667,618.42453 L 262.2632,731.63395"
         style="fill:#0079c2;fill-rule:nonzero;stroke:none"
         id="path28" />
      <path
         d="M 353.86075,692.01065 L 353.86075,713.35339 C 353.86075,716.23003 356.08781,717.06521 357.38688,717.06521 C 359.52122,717.06521 361.0059,715.30211 361.0059,713.35339 L 361.0059,686.99975 C 361.0059,683.47354 360.35633,679.57618 351.91203,679.57618 L 342.72534,679.57618 L 342.72534,667.1417 L 352.28318,667.1417 C 358.68603,667.1417 361.0059,665.65694 361.0059,658.6974 L 361.0059,636.24106 C 361.0059,634.29241 359.52122,632.52931 357.38688,632.52931 C 356.08781,632.52931 353.86075,633.27169 353.86075,636.24106 L 353.86075,654.70723 L 331.21886,654.70723 L 331.21886,638.65374 C 331.21886,630.7662 332.14678,618.42453 348.01466,618.42453 L 366.75918,618.42453 C 382.62706,618.42453 383.64779,630.7662 383.64779,638.65374 L 383.64779,656.74868 C 383.64779,669.09035 375.01787,672.43095 368.24387,672.1526 L 368.24387,673.26613 C 383.46217,672.89498 383.64779,684.58707 383.64779,688.57725 L 383.64779,711.40474 C 383.64779,719.38509 382.62706,731.63395 366.75918,731.63395 L 348.01466,731.63395 C 332.14678,731.63395 331.21886,719.38509 331.21886,711.40474 L 331.21886,692.01065 L 353.86075,692.01065"
         style="fill:#0079c2;fill-rule:nonzero;stroke:none"
         id="path30" />
      <path
         d="M 398.49494,618.42453 L 450.92386,618.42453 L 450.92386,731.63395 L 428.28198,731.63395 L 428.28198,632.52931 L 421.13682,632.52931 L 421.13682,731.63395 L 398.49494,731.63395 L 398.49494,618.42453"
         style="fill:#0079c2;fill-rule:nonzero;stroke:none"
         id="path32" />
      <path
         d="M 488.41289,680.68971 L 488.41289,632.52931 L 491.38234,632.52931 C 493.79494,632.52931 495.55805,634.57076 495.55805,638.18978 L 495.55805,675.02924 C 495.55805,678.64826 493.79494,680.68971 491.38234,680.68971 L 488.41289,680.68971 z M 465.77102,731.63395 L 488.41289,731.63395 L 488.41289,693.12418 L 501.40413,693.12418 C 517.17921,693.12418 518.19993,680.87532 518.19993,672.89498 L 518.19993,638.65374 C 518.19993,630.7662 517.17921,618.42453 501.40413,618.42453 L 465.77102,618.42453 L 465.77102,731.63395"
         style="fill:#0079c2;fill-rule:nonzero;stroke:none"
         id="path34" />
      <path
         d="M 562.83413,713.35339 C 562.83413,715.30211 561.34944,717.06521 559.21518,717.06521 C 557.91604,717.06521 555.68897,716.23003 555.68897,713.35339 L 555.68897,636.24106 C 555.68897,633.27169 557.91604,632.52931 559.21518,632.52931 C 561.34944,632.52931 562.83413,634.29241 562.83413,636.24106 L 562.83413,713.35339 z M 533.04709,711.40474 C 533.04709,719.38509 534.06781,731.63395 549.84289,731.63395 L 568.68021,731.63395 C 584.45528,731.63395 585.47601,719.38509 585.47601,711.40474 L 585.47601,638.65374 C 585.47601,630.7662 584.45528,618.42453 568.68021,618.42453 L 549.84289,618.42453 C 534.06781,618.42453 533.04709,630.7662 533.04709,638.65374 L 533.04709,711.40474"
         style="fill:#0079c2;fill-rule:nonzero;stroke:none"
         id="path36" />
      <path
         d="M 659.15494,618.42453 L 688.66363,618.42453 L 688.66363,731.63395 L 666.02175,731.63395 L 666.02175,660.64605 L 665.18656,660.64605 L 653.49446,731.63395 L 635.39952,731.63395 L 623.80023,660.64605 L 622.96505,660.64605 L 622.96505,731.63395 L 600.32316,731.63395 L 600.32316,618.42453 L 629.73905,618.42453 L 644.4934,698.04228 L 659.15494,618.42453"
         style="fill:#0079c2;fill-rule:nonzero;stroke:none"
         id="path38" />
      <path
         d="M 189.22457,463.6431 C 182.29279,433.2993 164.92167,408.61596 162.52755,404.62579 C 158.74148,410.28626 144.88728,432.09296 137.84414,456.2196 C 130.1515,483.22281 129.0194,507.16384 131.67331,530.64083 C 134.30872,554.21063 144.26555,578.43008 144.26555,578.43008 C 149.55487,591.0501 157.47953,604.69091 162.63892,611.37211 C 170.20163,601.53593 187.58211,572.21285 193.00129,533.98143 C 196.01713,512.63869 196.14699,493.98698 189.22457,463.6431 z M 162.52755,603.76299 C 159.12199,597.36014 153.83267,585.20409 153.33159,566.27396 C 153.20166,548.0862 160.50459,532.40394 162.63892,529.15615 C 164.54116,532.40394 170.83264,546.04475 171.5843,564.69646 C 172.09467,582.88422 166.04448,597.26733 162.52755,603.76299 z M 187.21089,515.14411 C 186.9511,526.74347 185.56843,538.99233 183.80532,546.3231 C 184.43633,533.70308 182.92381,515.97929 180.02861,502.06013 C 177.13341,488.2337 168.93961,465.03506 162.39762,454.36369 C 156.35672,464.5711 148.91458,484.61469 145.01721,501.96733 C 141.10129,519.31989 140.98992,540.38428 140.98992,546.69433 C 139.95063,541.40501 137.35234,522.38214 138.08544,503.3592 C 138.69789,487.67694 142.37252,471.43791 144.3862,464.01433 C 152.06956,439.23819 160.76444,423.37031 162.39762,420.86482 C 164.0308,423.37031 174.98059,442.94994 180.65962,463.45756 C 186.31081,483.96519 187.45218,503.63762 187.21089,515.14411"
         style="fill:#0079c2;fill-rule:nonzero;stroke:none"
         id="path40" />
      <path
         d="M 174.28461,618.42453 L 121.58655,618.42453 L 121.58655,653.77924 C 121.63295,653.77924 121.67007,653.6865 121.71648,653.6865 C 134.13239,641.25203 154.26879,641.25203 166.69398,653.6865 C 179.10989,666.02817 179.10989,686.16457 166.69398,698.59904 C 166.63837,698.69185 166.58269,698.69185 166.527,698.78466 C 166.527,698.78466 166.527,698.78466 166.527,698.78466 C 166.46204,698.78466 166.39707,698.87746 166.34139,698.97027 C 153.95332,711.21913 137.76997,717.34356 121.58655,717.34356 C 105.32895,717.34356 89.071364,711.21913 76.674014,698.78466 C 54.811554,676.97788 52.222624,643.10787 68.888494,618.42453 C 71.134114,615.08393 73.723124,611.92887 76.674014,608.9595 C 89.071364,596.52503 105.32895,590.40052 121.58655,590.40052 L 121.58655,505.40073 C 59.117274,505.40073 8.4792243,555.97374 8.4792243,618.42453 C 8.4792243,680.87532 59.117274,731.54114 121.58655,731.54114 C 154.15749,731.54114 183.49913,717.71471 204.13661,695.7224 L 204.13661,618.42453 L 174.28461,618.42453"
         style="fill:#0079c2;fill-rule:nonzero;stroke:none"
         id="path42" />
    </g>
  </g>
</svg>

<svg xmlns="http://www.w3.org/2000/svg" viewBox="0 0 694.35 341.19"><g transform="translate(-1.398-397.54)" fill="#0079c2"><path d="m218.57 618.42h43.17v14.1h-20.535v99.1h-22.633v-113.21"/><path d="m287.33 689.13l3.879-56.6h1.299l3.879 56.6h-9.06m-25.06 42.5h22.16l2.097-30.07h10.671l2.106 30.07h22.15l-11.803-113.21h-35.577l-11.803 113.21"/><path d="m353.86 692.01v21.343c0 2.877 2.227 3.712 3.526 3.712 2.134 0 3.619-1.763 3.619-3.712v-26.354c0-3.526-.65-7.424-9.09-7.424h-9.187v-12.434h9.558c6.403 0 8.723-1.485 8.723-8.444v-22.456c0-1.949-1.485-3.712-3.619-3.712-1.299 0-3.526.742-3.526 3.712v18.466h-22.642v-16.05c0-7.888.928-20.229 16.796-20.229h18.745c15.868 0 16.889 12.342 16.889 20.229v18.09c0 12.342-8.63 15.682-15.404 15.404v1.114c15.218-.371 15.404 11.321 15.404 15.311v22.827c0 7.98-1.021 20.229-16.889 20.229h-18.745c-15.868 0-16.796-12.249-16.796-20.229v-19.394h22.642"/><path d="m398.49 618.42h52.43v113.21h-22.642v-99.1h-7.145v99.1h-22.642v-113.21"/><path d="m488.41 680.69v-48.16h2.969c2.413 0 4.176 2.041 4.176 5.66v36.839c0 3.619-1.763 5.66-4.176 5.66h-2.969m-22.642 50.944h22.642v-38.51h12.991c15.775 0 16.796-12.249 16.796-20.229v-34.24c0-7.888-1.021-20.229-16.796-20.229h-35.633v113.21"/><path d="m562.83 713.35c0 1.949-1.485 3.712-3.619 3.712-1.299 0-3.526-.835-3.526-3.712v-77.11c0-2.969 2.227-3.712 3.526-3.712 2.134 0 3.619 1.763 3.619 3.712v77.11m-29.787-1.949c0 7.98 1.021 20.229 16.796 20.229h18.837c15.775 0 16.796-12.249 16.796-20.229v-72.75c0-7.888-1.021-20.229-16.796-20.229h-18.837c-15.775 0-16.796 12.342-16.796 20.229v72.75"/><path d="m659.15 618.42h29.509v113.21h-22.642v-70.988h-.835l-11.692 70.988h-18.09l-11.599-70.988h-.835v70.988h-22.642v-113.21h29.416l14.754 79.62 14.662-79.62"/><path d="m189.22 463.64c-6.932-30.344-24.303-55.03-26.697-59.02-3.786 5.66-17.64 27.467-24.683 51.594-7.693 27-8.825 50.944-6.171 74.42 2.635 23.57 12.592 47.789 12.592 47.789 5.289 12.62 13.214 26.26 18.373 32.942 7.563-9.836 24.943-39.16 30.362-77.39 3.02-21.343 3.146-39.994-3.777-70.34m-26.697 140.12c-3.406-6.403-8.695-18.559-9.196-37.489-.13-18.19 7.173-33.87 9.307-37.12 1.902 3.248 8.194 16.889 8.945 35.54.51 18.19-5.54 32.571-9.06 39.07m24.683-88.62c-.26 11.599-1.642 23.848-3.406 31.18.631-12.62-.882-30.344-3.777-44.26-2.895-13.826-11.09-37.03-17.631-47.696-6.04 10.207-13.483 30.25-17.38 47.604-3.916 17.353-4.03 38.42-4.03 44.727-1.039-5.289-3.638-24.312-2.904-43.34.612-15.682 4.287-31.921 6.301-39.34 7.683-24.776 16.378-40.644 18.01-43.15 1.633 2.505 12.583 22.09 18.262 42.593 5.651 20.508 6.793 40.18 6.551 51.687"/><path d="m174.28 618.42h-52.698v35.35c.046 0 .084-.093.13-.093 12.416-12.434 32.552-12.434 44.978 0 12.416 12.342 12.416 32.478 0 44.913-.056.093-.111.093-.167.186-.065 0-.13.093-.186.186-12.388 12.249-28.571 18.373-44.755 18.373-16.258 0-32.515-6.124-44.913-18.559-21.862-21.807-24.451-55.677-7.786-80.36 2.246-3.341 4.835-6.496 7.786-9.465 12.397-12.434 28.655-18.559 44.913-18.559v-85c-62.47 0-113.11 50.573-113.11 113.02 0 62.45 50.638 113.12 113.11 113.12 32.571 0 61.913-13.826 82.55-35.819v-77.3h-29.852"/></g></svg>
